src/components/00-materials/images-raw/Sail Boat.svg

<svg width="96" height="96" viewBox="0 0 96 96" fill="none" xmlns="http://www.w3.org/2000/svg">
<path d="M84 67H25L23 69H18V72.1C17.9814 73.1283 18.1674 74.1499 18.5472 75.1057C18.927 76.0614 19.493 76.9321 20.2122 77.6672C20.9315 78.4023 21.7897 78.987 22.7369 79.3875C23.6842 79.788 24.7016 79.9962 25.73 80H68.78C75.29 80 84 74.66 84 68.14V67Z" stroke="#00008F" stroke-width="2" stroke-linecap="round" stroke-linejoin="round"/>
<path d="M14 80V73.07M54 60V67M18.53 75H65.43C71.71 75 80.24 75.43 83 72M41 60V16.5C41 15.837 41.2634 15.2011 41.7322 14.7322C42.2011 14.2634 42.837 14 43.5 14C44.163 14 44.7989 14.2634 45.2678 14.7322C45.7366 15.2011 46 15.837 46 16.5V60M15 67H18V73.07H12V70C12 69.2044 12.3161 68.4413 12.8787 67.8787C13.4413 67.3161 14.2044 67 15 67ZM41 17C38.2631 23.4677 34.9145 29.6592 31 35.49C27.048 41.6004 22.7057 47.4492 18 53H41V17ZM46 55H78C76.7703 46.0154 72.904 37.5972 66.89 30.81C56.76 19.26 46 17 46 17V55ZM29 67L35 60H53.53C62.53 60 66.24 64.2 69 67H29Z" stroke="#00008F" stroke-width="2" stroke-linecap="round" stroke-linejoin="round"/>
</svg>

<svg width="96" height="96" viewBox="0 0 96 96" fill="none" xmlns="http://www.w3.org/2000/svg"><path d="M84 67H25l-2 2h-5v3.1a7.759 7.759 0 007.73 7.9h43.05C75.29 80 84 74.66 84 68.14V67z" stroke="#00008F" stroke-width="2" stroke-linecap="round" stroke-linejoin="round"/><path d="M14 80v-6.93M54 60v7m-35.47 8h46.9c6.28 0 14.81.43 17.57-3M41 60V16.5a2.5 2.5 0 015 0V60m-31 7h3v6.07h-6V70a3 3 0 013-3zm26-50a110.27 110.27 0 01-10 18.49A169.057 169.057 0 0118 53h23V17zm5 38h32a45.85 45.85 0 00-11.11-24.19C56.76 19.26 46 17 46 17v38zM29 67l6-7h18.53c9 0 12.71 4.2 15.47 7H29z" stroke="#00008F" stroke-width="2" stroke-linecap="round" stroke-linejoin="round"/></svg>
